X: 986
T: Hayatları Değirmi
C: (Anonim)
O: Turkey
F: http://compmusic.upf.edu/node/140
N: huzzam--turku--curcuna--hayatlari_degirmi--
N: makam= huzzam
N: form= turku
N: usul= curcuna = 10/8
M: 10/8
L: 1/16
K: C _1/4B _3/4e ^3/4f 
Q: 1/4=168
%%MIDI tuningsystem comma53
z4 f2g4g2 f2g2 f2e2  | f2e2 f2e2 d2e2 d2f2 e2d2  | \
w:  Ha yat la *  rı   |  de *  ğir *  *  mi    | 
d4 f2g4g2 f2g2 f2e2  | 
w:  *  Bu  ge len  *  yâr   | 
fgfg f2e2 d2e2 d2f2 e2d2  | d4 f2gf g2g4g2 f2e2  | 
w:  de *  *  *  ğil  *  *  mi    |  *  Sa kıp *  *  lar dan   | 
fgfg e2e2 d2d2 c2e6  | e4 d2e2 d2f2 gaf2 e2d2  | \
w:  üç  *  *  *  *  gü *  zel    |  *  Bi ri  *  Eş *  *  ref   | 
d4 dec2 =B2B8-B2  | 
w:  de ğil  *  *  *  mi    | 
z4 f2gf g2g4g2 f2e2  | fgfg f2e2 d2ef efe2 d4  | 
w:  A man  *  *  Eş ref   |  ca *  *  *  nım  *  *  Eş *  *  *  ref    | 
z4 f2gf g2g2 g2g2 f2e2  | fgfg f2e2 d2ef efe2 d4  | 
w:  A man  *  *  Eş *  ref   |  ma *  *  *  lım  *  *  Eş *  *  *  ref    | 
{f}g4 g2g4g4g2 f2e2  | fgfg e2e2 d2d2 c2e6  | \
w:  *  Uy ku dan  u yart  |  tın  *  *  *  *  be *  ni    | 
d2z2 d2e2 d2f2 gaf2 e2d2  | 
w:  *  Ka na  *  bo *  *  yat  | 
d4 c2c2 =B2B8-B2  | {f}g4 g2g4g4g2 f2e2  | \
w:  tın  *  be *  ni    |  *  Uy ku dan  u yart  | 
fgfg e2e2 d2d2 c2e6  | 
w:  tın  *  *  *  *  be *  ni    | 
d2z2 d2e2 d2f2 gaf2 e2d2  | d4 c2c2 =B2B8-B2  | \
w:  *  Ka na  *  bo *  *  yat  |  tın  *  be *  ni    | 
z4 f2g4g2 f2g2 f2e2  | 
w:  Ha yat la *  rı   | 
f2e2 f2e2 d2e2 d2f2 e2d2  | d4 f2g4g2 f2g2 f2e2  | \
w:  de *  ğir *  *  mi    |  *  Bu  ge len  *  yâr   | 
fgfg f2e2 d2e2 d2f2 e2d2  | 
w:  de *  *  *  ğil  *  *  mi    | 
d4 f2gf g2g4g2 f2e2  | fgfg e2e2 d2d2 c2e6  | \
w:  *  Sa kıp *  *  lar dan   |  üç  *  *  *  *  gü *  zel    | 
e4 d2e2 d2f2 gaf2 e2d2  | 
w:  *  Bi ri  *  Eş *  *  ref   | 
d4 dec2 =B2B8-B2  | z4 f2gf g2g4g2 f2e2  | \
w:  de ğil  *  *  *  mi    |  A man  *  *  Eş ref   | 
fgfg f2e2 d2ef efe2 d4  | 
w:  ca *  *  *  nım  *  *  Eş *  *  *  ref    | 
z4 f2gf g2g2 g2g2 f2e2  | fgfg f2e2 d2ef efe2 d4  | 
w:  A man  *  *  Eş *  ref   |  ma *  *  *  lım  *  *  Eş *  *  *  ref    | 
{f}g4 g2g4g4g2 f2e2  | fgfg e2e2 d2d2 c2e6  | \
w:  *  Uy ku dan  u yart  |  tın  *  *  *  *  be *  ni    | 
d2z2 d2e2 d2f2 gaf2 e2d2  | 
w:  *  Ka na  *  bo *  *  yat  | 
d4 c2c2 =B2B8-B2  | {f}g4 g2g4g4g2 f2e2  | \
w:  tın  *  be *  ni    |  *  Uy ku dan  u yart  | 
fgfg e2e2 d2d2 c2e6  | 
w:  tın  *  *  *  *  be *  ni    | 
d2z2 d2e2 d2f2 gaf2 e2d2  | d4 c2c2 =B2B8-B2  | |


